Origami/64x64/apps/serviio.svg

<svg width="64" height="64" version="1" xmlns="http://www.w3.org/2000/svg">
 <path d="m4.0000004 56.200069v1.999971c0 1.549978 1.2495821 2.79996 2.80076 2.79996h50.39928c1.549977 0 2.79996-1.249982 2.79996-2.79996v-1.999971c0 1.549977-1.249983 2.79996-2.79996 2.79996h-50.39928c-1.5503779 0-2.79996-1.249983-2.79996-2.79996z" style="opacity:.2"/>
 <rect transform="matrix(0,-1,-1,0,0,0)" x="-60" y="-60" width="55.999" height="55.999" rx="2.8" ry="2.8" style="fill:#f4b400"/>
 <path d="m6.8007812 4c-1.5511778 0-2.8007812 1.2496034-2.8007812 2.8007812v1.0019532c0-1.5511778 1.2496034-2.8007813 2.8007812-2.8007813h50.398438c1.549977 0 2.800781 1.2496035 2.800781 2.8007813v-1.0019532c0-1.5511777-1.250804-2.8007812-2.800781-2.8007812h-50.398438z" style="fill:#ffffff;opacity:.2"/>
 <path d="m31.9996 14.000686a17.999743 17.999743 0 0 0 -16.925558 11.999829h-5.0741274l3.9999424 5.999914 3.999943 5.999914 3.999943-5.999914 3.999943-5.999914h-4.367138a11.999828 11.999828 0 0 1 10.367852 -5.999914 11.999828 11.999828 0 0 1 11.311838 8.035885l2.687962-4.035943 3.843945 5.765918a17.999743 17.999743 0 0 0 -17.843745 -15.765775zm13.9998 11.999829-3.999943 5.999914-3.999943 5.999914h4.367138a11.999828 11.999828 0 0 1 -10.367852 5.999914 11.999828 11.999828 0 0 1 -11.311838 -8.035885l-2.687962 4.035943-3.843745-5.765918a17.999743 17.999743 0 0 0 17.843545 15.765775 17.999743 17.999743 0 0 0 16.925758 -11.999829h5.073927l-3.999942-5.999914-3.999943-5.999914z" style="fill:#3f3f3f"/>
</svg>

<svg xmlns="http://www.w3.org/2000/svg" width="64" height="64" version="1">
 <path style="opacity:0.2" d="m 4.0000004,56.200069 0,1.999971 c 0,1.549978 1.2495821,2.79996 2.80076,2.79996 L 57.20004,61 C 58.750017,61 60,59.750018 60,58.20004 l 0,-1.999971 c 0,1.549977 -1.249983,2.79996 -2.79996,2.79996 l -50.3992796,0 c -1.5503779,0 -2.79996,-1.249983 -2.79996,-2.79996 z"/>
 <rect style="fill:#f4b400" width="55.999" height="55.999" x="-60" y="-60" rx="2.8" ry="2.8" transform="matrix(0,-1,-1,0,0,0)"/>
 <path style="opacity:0.2;fill:#ffffff" d="M 6.8007812 4 C 5.2496034 4 4 5.2496034 4 6.8007812 L 4 7.8027344 C 4 6.2515566 5.2496034 5.0019531 6.8007812 5.0019531 L 57.199219 5.0019531 C 58.749196 5.0019531 60 6.2515566 60 7.8027344 L 60 6.8007812 C 60 5.2496035 58.749196 4 57.199219 4 L 6.8007812 4 z"/>
 <path style="fill:#3f3f3f" d="M 31.9996,14.000686 A 17.999743,17.999743 0 0 0 15.074042,26.000515 l -5.0741274,0 3.9999424,5.999914 3.999943,5.999914 3.999943,-5.999914 3.999943,-5.999914 -4.367138,0 A 11.999828,11.999828 0 0 1 32.0004,20.000601 11.999828,11.999828 0 0 1 43.312238,28.036486 l 2.687962,-4.035943 3.843945,5.765918 A 17.999743,17.999743 0 0 0 32.0004,14.000686 Z m 13.9998,11.999829 -3.999943,5.999914 -3.999943,5.999914 4.367138,0 A 11.999828,11.999828 0 0 1 31.9988,44.000257 11.999828,11.999828 0 0 1 20.686962,35.964372 L 17.999,40.000315 14.155255,34.234397 A 17.999743,17.999743 0 0 0 31.9988,50.000172 17.999743,17.999743 0 0 0 48.924558,38.000343 l 5.073927,0 -3.999942,-5.999914 -3.999943,-5.999914 z"/>
</svg>
